X:1
T:There’s a City That Is Far, Far Away
T:There’s a City That Is Far, Far Away
T:Winston Cornelius Hafley
T:Winston Cornelius Hafley, 1904
T:Public Domain Courtesy of the Cyber Hymnal™
T:Public Domain Courtesy of the Cyber Hymnal™
C:Winston Cornelius Hafley
Z:Public Domain
Z:Courtesy of the Cyber Hymnal™
%%score 1 ( 2 3 )
L:1/8
Q:1/4=100
M:4/4
K:Ab
V:1 treble 
V:2 bass 
V:3 bass 
V:1
 [Ec][DB] | [CA][B,G][CA][DB] [Ec]2 [FA]>[DF] | [CE]6 [DG][CA] | [EB][EB][EB][Ec] | %4
w: 1.~There’s a|ci- ty that is far, far a-|way; You can|see its sil- ver|
w: 2.~We will|hear the an- gels sing o- ver|there, As they|hold with- in their|
w: 3.~There the|tree of life will bloom e- ver-|more, While the|cy- cles of e-|
w: 4.~All the|pil- grims of the earth, I am|told, Who have|suf- fered for their|
 [Gd]2 [Ge]>[Gd] | [Ac]6 [Ec][DB] x2 | [CA][B,G][CA][DB] [Ec]2 [FA]>[DF] | %7
w: spires o’er the|sea; ’Tis be-|yond the roll- ing waves’ mist- y|
w: hands harps of|gold, In that|ci- ty that is bright and so|
w: ter- ni- ty|roll, And no|sick- ness, pain or death we shall|
w: Lord on the|way, Will re-|ceive a shin- ing crown, made of|
 [CE]6 !fermata![Ee]>[Fd] | [Ec]<[Ec] [Ec][Ac] [GB]2 [Ac]>[EB] | [EA]6 ||"^Refrain" [Ee]>[Ed] | %11
w: spray; Oh, that|ci- ty is for you and for|me.||
w: fair; Oh, that|ci- ty is the home of the|soul.|Oh that|
w: know, For that|ci- ty is the home of the|soul.||
w: gold, In that|ci- ty that is far, far a-|way.||
 [Ec]6 [FA]>[DF] | [CE]6 [DG][CA] | [EB][EB][EB][Ac] [Gd]2 [Ae]>[Ed] | [Ec]6 [Ec][DB] | %15
w: ||||
w: home, hap- py|home, Where the|cy- cles of e- ter- ni- ty|roll, There no|
w: ||||
w: ||||
 [CA][B,G][CA][DB] [Ec]2 [FA]>[DF] | [CE]6 !fermata![Ee]>[Fd] | %17
w: ||
w: sor- rows, sin nor death e’er shall|come, For that|
w: ||
w: ||
 [Ec]<[Ec] [Ec][Ac] [GB]2 [Ac]>[EB] | [EA]6 |] %19
w: ||
w: ci- ty is the home of the|soul.|
w: ||
w: ||
V:2
 [A,,A,][A,,A,] | [A,,A,][A,,A,][A,,A,][A,,A,] [A,,A,]2 [D,A,]>[D,A,] | %2
w: ~ ~|~ ~ ~ ~ ~ ~ ~|
 ([A,,A,]2 [A,,A,]>[A,,A,] [A,,A,]2) [E,B,][E,A,] | [E,G,][E,G,][E,G,][E,A,] | %4
w: ~ * * * ~ ~|~ ~ ~ ~|
 [E,B,]2 [E,C]>[E,B,] | (z2 [A,,A,])[A,,A,] x6 | %6
w: ~ ~ ~|* ~|
 [A,,A,][A,,A,][A,,A,][A,,A,] [A,,A,]2 [D,A,]>[D,A,] | %7
w: ~ ~ ~ ~ ~ ~ ~|
 ([A,,A,]2 [A,,A,]>[A,,A,] [A,,A,]2) !fermata![C,A,]>[D,A,] | %8
w: ~ * * * ~ ~|
 [E,A,]<[E,A,] [E,A,][E,A,] [E,D]2 [E,E]>[E,D] | [A,,C]6 || [A,C]>[A,B,] | %11
w: ~ ~ ~ ~ ~ ~ ~|~|~ ~|
 A,2 A,A, A,2 [D,A,]>[D,A,] | [A,,A,]2 [A,,A,][A,,A,] [A,,A,]2 [E,B,][E,A,] | %13
w: ~ ~ ~ bless- ed home,|~ ~ ~ hap- py home,|
 [E,G,][E,G,][E,G,][E,A,] [E,B,]2 [E,C]>[E,B,] | A,2 [E,A,][C,A,] [A,,A,]2 [A,,A,][A,,A,] | %15
w: ||
 [A,,A,][A,,A,][A,,A,][A,,A,] [A,,A,]2 [D,A,]>[D,A,] | %16
w: |
 [A,,A,]2 [A,,A,]>[A,,A,] [A,,A,]2 !fermata![C,A,]>[D,A,] | %17
w: |
 [E,A,]<[E,A,] [E,A,][E,A,] [E,D]2 [E,E]>[E,D] | [A,,C]6 |] %19
w: ||
V:3
 x2 | x8 | x8 | x4 | x4 | (A,6 E,>C, A,,2) | x8 | x8 | x8 | x6 || x2 | A,2 A,A, A,2 x2 | x8 | x8 | %14
 A,2 x6 | x8 | x8 | x8 | x6 |] %19

